svg/pizza-slice.svg

<svg xmlns="http://www.w3.org/2000/svg" viewBox="0 0 58 63" enable-background="new 0 0 58 63"><style type="text/css">.st0{fill:#333333;}</style><title>pizza-slice</title><desc>Created with Sketch.</desc><path class="st0" d="M3.4 12.9l24.2 48.5c.7 1.5 1.9 1.5 2.7 0l24-48.1c-7.7-4-16.5-6.3-25.8-6.3-9 0-17.5 2.1-25.1 5.9zm10.6 8.1c0-2.8 2.2-5 5-5s5 2.2 5 5-2.2 5-5 5-5-2.2-5-5zm24.9 14.3c.1-.4.1-.9.1-1.3 0-3.9-3.1-7-7-7s-7 3.1-7 7 3.1 7 7 7c2.1 0 3.9-.9 5.2-2.3l-8.2 16.4-13.4-26.9c1 .5 2.2.8 3.4.8 4.4 0 8-3.6 8-8s-3.6-8-8-8c-3.9 0-7.1 2.7-7.8 6.4l-2.3-4.6c6.1-2.5 12.8-3.8 19.6-3.8 7.1 0 14.1 1.4 20.5 4.1l-10.1 20.2zm-2.9-1.3c0 2.2-1.8 4-4 4s-4-1.8-4-4 1.8-4 4-4 4 1.8 4 4zM28.5 0c-10.1 0-19.7 2.4-28.2 6.6l1.8 3.6c7.9-4 16.9-6.2 26.4-6.2 9.8 0 19.1 2.4 27.2 6.6l1.8-3.6c-8.7-4.5-18.6-7-29-7z"/></svg>

<svg xmlns="http://www.w3.org/2000/svg" viewBox="0 0 58 63"><path d="M3.4 12.9l24.2 48.5c.7 1.5 1.9 1.5 2.7 0l24-48.1C46.6 9.3 37.8 7 28.5 7c-9 0-17.5 2.1-25.1 5.9zM14 21c0-2.8 2.2-5 5-5s5 2.2 5 5-2.2 5-5 5-5-2.2-5-5zm24.9 14.3c.1-.4.1-.9.1-1.3 0-3.9-3.1-7-7-7s-7 3.1-7 7 3.1 7 7 7c2.1 0 3.9-.9 5.2-2.3L29 55.1 15.6 28.2c1 .5 2.2.8 3.4.8 4.4 0 8-3.6 8-8s-3.6-8-8-8c-3.9 0-7.1 2.7-7.8 6.4l-2.3-4.6C15 12.3 21.7 11 28.5 11c7.1 0 14.1 1.4 20.5 4.1L38.9 35.3zM36 34c0 2.2-1.8 4-4 4s-4-1.8-4-4 1.8-4 4-4 4 1.8 4 4zM28.5 0C18.4 0 8.8 2.4.3 6.6l1.8 3.6C10 6.2 19 4 28.5 4c9.8 0 19.1 2.4 27.2 6.6L57.5 7c-8.7-4.5-18.6-7-29-7z" fill="#333"/></svg>
